svg/color/dam.svg

<?xml version="1.0" encoding="UTF-8" ?>
<!DOCTYPE svg PUBLIC "-//W3C//DTD SVG 1.1//EN" "http://www.w3.org/Graphics/SVG/1.1/DTD/svg11.dtd">
<svg width="250pt" height="250pt" viewBox="0 0 250 250" version="1.1" xmlns="http://www.w3.org/2000/svg">
<g id="#ffffffff">
<path fill="#ffffff" opacity="1.00" d=" M 0.00 0.00 L 117.53 0.00 C 110.61 1.74 103.36 1.42 96.50 3.42 C 67.99 10.03 42.05 27.13 24.73 50.72 C 13.90 65.26 6.11 82.21 2.79 100.07 C 1.78 105.56 1.36 111.15 0.00 116.57 L 0.00 0.00 Z" />
<path fill="#ffffff" opacity="1.00" d=" M 133.43 0.00 L 250.00 0.00 L 250.00 116.56 C 248.12 108.64 247.79 100.43 245.54 92.58 C 240.05 71.25 228.23 51.82 212.82 36.18 C 195.56 19.46 173.65 7.19 149.92 2.78 C 144.44 1.78 138.85 1.36 133.43 0.00 Z" />
<path fill="#ffffff" opacity="1.00" d=" M 53.26 73.02 C 61.90 67.60 70.72 62.35 79.81 57.71 C 79.91 68.04 79.80 78.36 79.88 88.69 C 71.17 83.19 62.00 78.46 53.26 73.02 Z" />
<path fill="#ffffff" opacity="1.00" d=" M 82.34 57.97 C 91.46 62.57 100.03 68.18 109.02 73.03 C 99.89 77.57 91.50 83.46 82.35 87.97 C 82.24 77.97 82.27 67.97 82.34 57.97 Z" />
<path fill="#ffffff" opacity="1.00" d=" M 190.30 63.22 C 192.89 61.57 195.53 59.95 198.48 58.99 C 198.42 68.98 198.41 78.98 198.48 88.98 C 194.84 88.34 191.98 85.85 188.79 84.18 C 182.95 80.91 177.32 77.25 171.29 74.34 C 177.51 70.43 183.95 66.91 190.30 63.22 Z" />
<path fill="#ffffff" opacity="1.00" d=" M 51.55 74.99 C 60.84 79.69 69.65 85.32 78.73 90.44 C 69.44 95.16 60.75 100.97 51.53 105.81 C 51.60 95.54 51.55 85.26 51.55 74.99 Z" />
<path fill="#ffffff" opacity="1.00" d=" M 83.56 90.19 C 92.18 84.89 101.00 79.93 109.78 74.92 C 109.84 85.10 109.87 95.27 109.77 105.45 C 105.39 103.68 101.53 100.92 97.44 98.61 C 92.86 95.72 87.76 93.66 83.56 90.19 Z" />
<path fill="#ffffff" opacity="1.00" d=" M 111.64 75.07 C 115.50 76.35 118.78 78.82 122.30 80.77 C 127.59 83.98 133.11 86.79 138.27 90.20 C 129.68 95.85 120.64 100.85 111.62 105.78 C 111.77 95.55 111.73 85.31 111.64 75.07 Z" />
<path fill="#ffffff" opacity="1.00" d=" M 142.43 90.75 C 151.20 86.08 159.56 80.69 168.36 76.07 C 168.36 86.33 168.34 96.58 168.37 106.84 C 159.49 102.44 151.30 96.79 142.45 92.32 C 142.44 91.93 142.43 91.14 142.43 90.75 Z" />
<path fill="#ffffff" opacity="1.00" d=" M 170.24 75.99 C 178.02 80.40 185.71 84.96 193.47 89.41 C 194.62 90.04 195.59 90.93 196.54 91.83 C 187.73 96.81 179.09 102.08 170.22 106.93 C 170.14 96.62 170.06 86.30 170.24 75.99 Z" />
<path fill="#ffffff" opacity="1.00" d=" M 64.77 100.77 C 69.86 98.10 74.50 94.60 79.85 92.45 C 79.79 102.63 79.96 112.80 79.77 122.97 C 70.83 118.19 62.19 112.87 53.33 107.94 C 56.71 104.90 60.96 103.16 64.77 100.77 Z" />
<path fill="#ffffff" opacity="1.00" d=" M 118.52 104.42 C 125.72 100.60 132.45 95.92 139.86 92.48 C 139.93 100.99 139.83 109.49 139.92 118.00 C 139.97 119.68 139.80 121.37 139.39 123.00 C 131.07 117.70 122.13 113.31 113.89 107.96 C 114.76 106.09 116.91 105.48 118.52 104.42 Z" />
<path fill="#ffffff" opacity="1.00" d=" M 184.90 101.00 C 189.37 98.60 193.51 95.57 198.29 93.79 C 198.56 103.77 198.43 113.77 198.37 123.76 C 196.83 123.40 195.39 122.77 194.06 121.95 C 186.72 117.56 179.17 113.53 171.93 108.97 C 175.87 105.73 180.62 103.73 184.90 101.00 Z" />
<path fill="#ffffff" opacity="1.00" d=" M 51.55 109.94 C 55.69 111.27 59.17 113.96 62.99 115.95 C 67.77 118.90 72.84 121.36 77.58 124.38 C 77.60 124.68 77.63 125.29 77.64 125.60 C 70.44 129.80 63.18 133.90 55.97 138.10 C 54.58 138.92 53.08 139.53 51.55 140.06 C 51.57 130.02 51.57 119.98 51.55 109.94 Z" />
<path fill="#ffffff" opacity="1.00" d=" M 111.85 109.90 C 116.03 111.50 119.70 114.14 123.62 116.27 C 128.19 119.12 133.09 121.44 137.60 124.39 C 137.60 124.70 137.60 125.30 137.60 125.61 C 133.09 128.57 128.19 130.87 123.61 133.73 C 119.69 135.86 116.03 138.50 111.85 140.10 C 111.59 130.04 111.58 119.96 111.85 109.90 Z" />
<path fill="#ffffff" opacity="1.00" d=" M 170.26 110.92 C 179.29 115.58 188.01 120.85 196.77 126.02 C 191.97 129.67 186.48 132.24 181.33 135.32 C 177.66 137.38 174.18 139.82 170.21 141.31 C 170.15 131.18 170.07 121.05 170.26 110.92 Z" />
<path fill="#ffffff" opacity="1.00" d=" M 53.26 142.07 C 62.09 137.06 70.78 131.79 79.72 126.98 C 80.00 137.16 79.75 147.36 79.86 157.54 C 74.68 155.53 70.26 152.09 65.33 149.59 C 61.28 147.13 56.92 145.13 53.26 142.07 Z" />
<path fill="#ffffff" opacity="1.00" d=" M 113.90 142.05 C 122.12 136.69 131.07 132.32 139.38 127.00 C 139.82 128.63 139.96 130.31 139.92 132.00 C 139.83 140.50 139.93 149.01 139.86 157.52 C 132.47 154.06 125.72 149.40 118.52 145.58 C 116.92 144.51 114.76 143.92 113.90 142.05 Z" />
<path fill="#ffffff" opacity="1.00" d=" M 171.79 143.21 C 180.70 138.23 189.40 132.83 198.47 128.13 C 198.41 138.40 198.43 148.66 198.46 158.92 C 192.02 155.73 185.97 151.83 179.69 148.35 C 176.99 146.74 174.01 145.49 171.79 143.21 Z" />
<path fill="#ffffff" opacity="1.00" d=" M 0.00 133.43 C 1.51 139.45 1.85 145.67 3.14 151.72 C 6.44 168.24 13.72 183.84 23.41 197.57 C 40.80 222.01 67.27 239.81 96.50 246.58 C 103.37 248.57 110.61 248.26 117.53 250.00 L 0.00 250.00 L 0.00 133.43 Z" />
<path fill="#ffffff" opacity="1.00" d=" M 246.49 153.42 C 248.07 146.83 248.35 140.01 250.00 133.44 L 250.00 250.00 L 133.44 250.00 C 140.26 248.33 147.32 248.00 154.14 246.31 C 199.17 236.18 236.58 198.48 246.49 153.42 Z" />
<path fill="#ffffff" opacity="1.00" d=" M 111.61 144.21 C 120.62 149.16 129.67 154.16 138.28 159.80 C 133.11 163.20 127.60 166.03 122.30 169.23 C 118.77 171.17 115.43 173.52 111.64 174.95 C 111.68 164.70 111.74 154.46 111.61 144.21 Z" />
<path fill="#ffffff" opacity="1.00" d=" M 51.51 145.00 C 53.22 145.25 54.90 145.71 56.33 146.73 C 63.49 151.27 71.16 154.98 78.16 159.77 C 72.96 163.15 67.43 165.98 62.13 169.19 C 58.61 171.15 55.31 173.52 51.55 175.01 C 51.55 165.01 51.61 155.00 51.51 145.00 Z" />
<path fill="#ffffff" opacity="1.00" d=" M 170.18 145.52 C 175.97 148.35 181.38 151.89 187.00 155.02 C 190.22 156.87 193.58 158.52 196.45 160.90 C 187.96 166.42 179.07 171.35 170.18 176.18 C 170.12 165.96 170.15 155.74 170.18 145.52 Z" />
<path fill="#ffffff" opacity="1.00" d=" M 52.92 176.98 C 61.92 171.78 71.04 166.73 79.87 161.23 C 79.79 171.57 79.92 181.92 79.82 192.27 C 70.63 187.60 61.85 182.13 52.92 176.98 Z" />
<path fill="#ffffff" opacity="1.00" d=" M 182.76 171.76 C 188.05 168.95 192.99 165.50 198.48 163.07 C 198.37 173.36 198.48 183.65 198.43 193.94 C 189.55 189.01 180.80 183.86 172.01 178.77 C 174.93 175.52 179.17 174.09 182.76 171.76 Z" />
</g>
<g id="#00ffffff">
<path fill="#00ffff" opacity="1.00" d=" M 117.53 0.00 L 133.43 0.00 C 138.85 1.36 144.44 1.78 149.92 2.78 C 173.65 7.19 195.56 19.46 212.82 36.18 C 228.23 51.82 240.05 71.25 245.54 92.58 C 247.79 100.43 248.12 108.64 250.00 116.56 L 250.00 133.44 C 248.35 140.01 248.07 146.83 246.49 153.42 C 236.58 198.48 199.17 236.18 154.14 246.31 C 147.32 248.00 140.26 248.33 133.44 250.00 L 117.53 250.00 C 110.61 248.26 103.37 248.57 96.50 246.58 C 67.27 239.81 40.80 222.01 23.41 197.57 C 13.72 183.84 6.44 168.24 3.14 151.72 C 1.85 145.67 1.51 139.45 0.00 133.43 L 0.00 116.57 C 1.36 111.15 1.78 105.56 2.79 100.07 C 6.11 82.21 13.90 65.26 24.73 50.72 C 42.05 27.13 67.99 10.03 96.50 3.42 C 103.36 1.42 110.61 1.74 117.53 0.00 M 116.28 5.18 C 96.42 6.84 76.85 13.10 60.13 24.06 C 30.09 43.28 9.14 76.43 5.76 112.03 C 4.01 122.30 4.88 132.79 6.37 143.03 C 10.74 173.59 27.86 201.95 52.45 220.54 C 67.16 231.87 84.60 239.43 102.77 243.05 C 114.37 244.76 126.24 246.24 137.92 244.24 C 170.39 241.16 200.92 223.50 220.54 197.54 C 238.08 174.87 246.66 145.65 244.90 117.11 C 243.86 110.28 243.64 103.30 241.59 96.65 C 236.37 74.42 224.33 53.91 207.78 38.22 C 183.78 14.90 149.59 2.73 116.28 5.18 Z" />
<path fill="#00ffff" opacity="1.00" d=" M 82.33 162.03 C 91.48 166.55 99.94 172.32 109.01 176.98 C 99.97 181.74 91.51 187.53 82.32 192.00 C 82.25 182.01 82.23 172.02 82.33 162.03 Z" />
</g>
<g id="#202336ff">
<path fill="#202336" opacity="1.00" d=" M 116.28 5.18 C 149.59 2.73 183.78 14.90 207.78 38.22 C 224.33 53.91 236.37 74.42 241.59 96.65 C 243.64 103.30 243.86 110.28 244.90 117.11 C 246.66 145.65 238.08 174.87 220.54 197.54 C 200.92 223.50 170.39 241.16 137.92 244.24 C 126.24 246.24 114.37 244.76 102.77 243.05 C 84.60 239.43 67.16 231.87 52.45 220.54 C 27.86 201.95 10.74 173.59 6.37 143.03 C 4.88 132.79 4.01 122.30 5.76 112.03 C 9.14 76.43 30.09 43.28 60.13 24.06 C 76.85 13.10 96.42 6.84 116.28 5.18 M 53.26 73.02 C 62.00 78.46 71.17 83.19 79.88 88.69 C 79.80 78.36 79.91 68.04 79.81 57.71 C 70.72 62.35 61.90 67.60 53.26 73.02 M 82.34 57.97 C 82.27 67.97 82.24 77.97 82.35 87.97 C 91.50 83.46 99.89 77.57 109.02 73.03 C 100.03 68.18 91.46 62.57 82.34 57.97 M 190.30 63.22 C 183.95 66.91 177.51 70.43 171.29 74.34 C 177.32 77.25 182.95 80.91 188.79 84.18 C 191.98 85.85 194.84 88.34 198.48 88.98 C 198.41 78.98 198.42 68.98 198.48 58.99 C 195.53 59.95 192.89 61.57 190.30 63.22 M 51.55 74.99 C 51.55 85.26 51.60 95.54 51.53 105.81 C 60.75 100.97 69.44 95.16 78.73 90.44 C 69.65 85.32 60.84 79.69 51.55 74.99 M 83.56 90.19 C 87.76 93.66 92.86 95.72 97.44 98.61 C 101.53 100.92 105.39 103.68 109.77 105.45 C 109.87 95.27 109.84 85.10 109.78 74.92 C 101.00 79.93 92.18 84.89 83.56 90.19 M 111.64 75.07 C 111.73 85.31 111.77 95.55 111.62 105.78 C 120.64 100.85 129.68 95.85 138.27 90.20 C 133.11 86.79 127.59 83.98 122.30 80.77 C 118.78 78.82 115.50 76.35 111.64 75.07 M 142.43 90.75 C 142.43 91.14 142.44 91.93 142.45 92.32 C 151.30 96.79 159.49 102.44 168.37 106.84 C 168.34 96.58 168.36 86.33 168.36 76.07 C 159.56 80.69 151.20 86.08 142.43 90.75 M 170.24 75.99 C 170.06 86.30 170.14 96.62 170.22 106.93 C 179.09 102.08 187.73 96.81 196.54 91.83 C 195.59 90.93 194.62 90.04 193.47 89.41 C 185.71 84.96 178.02 80.40 170.24 75.99 M 64.77 100.77 C 60.96 103.16 56.71 104.90 53.33 107.94 C 62.19 112.87 70.83 118.19 79.77 122.97 C 79.96 112.80 79.79 102.63 79.85 92.45 C 74.50 94.60 69.86 98.10 64.77 100.77 M 118.52 104.42 C 116.91 105.48 114.76 106.09 113.89 107.96 C 122.13 113.31 131.07 117.70 139.39 123.00 C 139.80 121.37 139.97 119.68 139.92 118.00 C 139.83 109.49 139.93 100.99 139.86 92.48 C 132.45 95.92 125.72 100.60 118.52 104.42 M 184.90 101.00 C 180.62 103.73 175.87 105.73 171.93 108.97 C 179.17 113.53 186.72 117.56 194.06 121.95 C 195.39 122.77 196.83 123.40 198.37 123.76 C 198.43 113.77 198.56 103.77 198.29 93.79 C 193.51 95.57 189.37 98.60 184.90 101.00 M 51.55 109.94 C 51.57 119.98 51.57 130.02 51.55 140.06 C 53.08 139.53 54.58 138.92 55.97 138.10 C 63.18 133.90 70.44 129.80 77.64 125.60 C 77.63 125.29 77.60 124.68 77.58 124.38 C 72.84 121.36 67.77 118.90 62.99 115.95 C 59.17 113.96 55.69 111.27 51.55 109.94 M 111.85 109.90 C 111.58 119.96 111.59 130.04 111.85 140.10 C 116.03 138.50 119.69 135.86 123.61 133.73 C 128.19 130.87 133.09 128.57 137.60 125.61 C 137.60 125.30 137.60 124.70 137.60 124.39 C 133.09 121.44 128.19 119.12 123.62 116.27 C 119.70 114.14 116.03 111.50 111.85 109.90 M 170.26 110.92 C 170.07 121.05 170.15 131.18 170.21 141.31 C 174.18 139.82 177.66 137.38 181.33 135.32 C 186.48 132.24 191.97 129.67 196.77 126.02 C 188.01 120.85 179.29 115.58 170.26 110.92 M 53.26 142.07 C 56.92 145.13 61.28 147.13 65.33 149.59 C 70.26 152.09 74.68 155.53 79.86 157.54 C 79.75 147.36 80.00 137.16 79.72 126.98 C 70.78 131.79 62.09 137.06 53.26 142.07 M 113.90 142.05 C 114.76 143.92 116.92 144.51 118.52 145.58 C 125.72 149.40 132.47 154.06 139.86 157.52 C 139.93 149.01 139.83 140.50 139.92 132.00 C 139.96 130.31 139.82 128.63 139.38 127.00 C 131.07 132.32 122.12 136.69 113.90 142.05 M 171.79 143.21 C 174.01 145.49 176.99 146.74 179.69 148.35 C 185.97 151.83 192.02 155.73 198.46 158.92 C 198.43 148.66 198.41 138.40 198.47 128.13 C 189.40 132.83 180.70 138.23 171.79 143.21 M 111.61 144.21 C 111.74 154.46 111.68 164.70 111.64 174.95 C 115.43 173.52 118.77 171.17 122.30 169.23 C 127.60 166.03 133.11 163.20 138.28 159.80 C 129.67 154.16 120.62 149.16 111.61 144.21 M 51.51 145.00 C 51.61 155.00 51.55 165.01 51.55 175.01 C 55.31 173.52 58.61 171.15 62.13 169.19 C 67.43 165.98 72.96 163.15 78.16 159.77 C 71.16 154.98 63.49 151.27 56.33 146.73 C 54.90 145.71 53.22 145.25 51.51 145.00 M 170.18 145.52 C 170.15 155.74 170.12 165.96 170.18 176.18 C 179.07 171.35 187.96 166.42 196.45 160.90 C 193.58 158.52 190.22 156.87 187.00 155.02 C 181.38 151.89 175.97 148.35 170.18 145.52 M 52.92 176.98 C 61.85 182.13 70.63 187.60 79.82 192.27 C 79.92 181.92 79.79 171.57 79.87 161.23 C 71.04 166.73 61.92 171.78 52.92 176.98 M 82.33 162.03 C 82.23 172.02 82.25 182.01 82.32 192.00 C 91.51 187.53 99.97 181.74 109.01 176.98 C 99.94 172.32 91.48 166.55 82.33 162.03 M 182.76 171.76 C 179.17 174.09 174.93 175.52 172.01 178.77 C 180.80 183.86 189.55 189.01 198.43 193.94 C 198.48 183.65 198.37 173.36 198.48 163.07 C 192.99 165.50 188.05 168.95 182.76 171.76 Z" />
</g>
</svg>

<?xml version="1.0" encoding="utf-8"?>
<!-- Generator: Adobe Illustrator 26.0.3, SVG Export Plug-In . SVG Version: 6.00 Build 0)  -->
<svg version="1.1" id="Layer_1" xmlns="http://www.w3.org/2000/svg" xmlns:xlink="http://www.w3.org/1999/xlink" x="0px" y="0px"
	 viewBox="0 0 250 250" style="enable-background:new 0 0 250 250;" xml:space="preserve">
<style type="text/css">
	.st0{fill:#FFFFFF;}
	.st1{fill:#00FFFF;}
	.st2{fill:#202336;}
</style>
<g id="_x23_ffffffff">
	<path class="st0" d="M53.3,73c8.6-5.4,17.5-10.7,26.5-15.3c0.1,10.3,0,20.7,0.1,31C71.2,83.2,62,78.5,53.3,73z"/>
	<path class="st0" d="M82.3,58C91.5,62.6,100,68.2,109,73C99.9,77.6,91.5,83.5,82.3,88C82.2,78,82.3,68,82.3,58z"/>
	<path class="st0" d="M190.3,63.2c2.6-1.7,5.2-3.3,8.2-4.2c-0.1,10-0.1,20,0,30c-3.6-0.6-6.5-3.1-9.7-4.8
		c-5.8-3.3-11.5-6.9-17.5-9.8C177.5,70.4,183.9,66.9,190.3,63.2z"/>
	<path class="st0" d="M51.5,75c9.3,4.7,18.1,10.3,27.2,15.5c-9.3,4.7-18,10.5-27.2,15.4C51.6,95.5,51.5,85.3,51.5,75z"/>
	<path class="st0" d="M83.6,90.2c8.6-5.3,17.4-10.3,26.2-15.3c0.1,10.2,0.1,20.3,0,30.5c-4.4-1.8-8.2-4.5-12.3-6.8
		C92.9,95.7,87.8,93.7,83.6,90.2z"/>
	<path class="st0" d="M111.6,75.1c3.9,1.3,7.1,3.8,10.7,5.7c5.3,3.2,10.8,6,16,9.4c-8.6,5.7-17.6,10.7-26.7,15.6
		C111.8,95.6,111.7,85.3,111.6,75.1z"/>
	<path class="st0" d="M142.4,90.8c8.8-4.7,17.1-10.1,25.9-14.7c0,10.3,0,20.5,0,30.8c-8.9-4.4-17.1-10-25.9-14.5
		C142.4,91.9,142.4,91.1,142.4,90.8z"/>
	<path class="st0" d="M170.2,76c7.8,4.4,15.5,9,23.2,13.4c1.1,0.6,2.1,1.5,3.1,2.4c-8.8,5-17.4,10.2-26.3,15.1
		C170.1,96.6,170.1,86.3,170.2,76z"/>
	<path class="st0" d="M64.8,100.8c5.1-2.7,9.7-6.2,15.1-8.3c-0.1,10.2,0.1,20.4-0.1,30.5c-8.9-4.8-17.6-10.1-26.4-15
		C56.7,104.9,61,103.2,64.8,100.8z"/>
	<path class="st0" d="M118.5,104.4c7.2-3.8,13.9-8.5,21.3-11.9c0.1,8.5,0,17,0.1,25.5c0.1,1.7-0.1,3.4-0.5,5
		c-8.3-5.3-17.3-9.7-25.5-15C114.8,106.1,116.9,105.5,118.5,104.4z"/>
	<path class="st0" d="M184.9,101c4.5-2.4,8.6-5.4,13.4-7.2c0.3,10,0.1,20,0.1,30c-1.5-0.4-3-1-4.3-1.8c-7.3-4.4-14.9-8.4-22.1-13
		C175.9,105.7,180.6,103.7,184.9,101z"/>
	<path class="st0" d="M51.5,109.9c4.1,1.3,7.6,4,11.4,6c4.8,3,9.8,5.4,14.6,8.4c0,0.3,0,0.9,0.1,1.2c-7.2,4.2-14.5,8.3-21.7,12.5
		c-1.4,0.8-2.9,1.4-4.4,2C51.6,130,51.6,120,51.5,109.9z"/>
	<path class="st0" d="M111.8,109.9c4.2,1.6,7.8,4.2,11.8,6.4c4.6,2.9,9.5,5.2,14,8.1c0,0.3,0,0.9,0,1.2c-4.5,3-9.4,5.3-14,8.1
		c-3.9,2.1-7.6,4.8-11.8,6.4C111.6,130,111.6,120,111.8,109.9z"/>
	<path class="st0" d="M170.3,110.9c9,4.7,17.8,9.9,26.5,15.1c-4.8,3.7-10.3,6.2-15.4,9.3c-3.7,2.1-7.2,4.5-11.1,6
		C170.1,131.2,170.1,121.1,170.3,110.9z"/>
	<path class="st0" d="M53.3,142.1c8.8-5,17.5-10.3,26.5-15.1c0.3,10.2,0,20.4,0.1,30.6c-5.2-2-9.6-5.4-14.5-7.9
		C61.3,147.1,56.9,145.1,53.3,142.1z"/>
	<path class="st0" d="M113.9,142.1c8.2-5.4,17.2-9.7,25.5-15.1c0.4,1.6,0.6,3.3,0.5,5c-0.1,8.5,0,17-0.1,25.5
		c-7.4-3.5-14.1-8.1-21.3-11.9C116.9,144.5,114.8,143.9,113.9,142.1z"/>
	<path class="st0" d="M171.8,143.2c8.9-5,17.6-10.4,26.7-15.1c-0.1,10.3,0,20.5,0,30.8c-6.4-3.2-12.5-7.1-18.8-10.6
		C177,146.7,174,145.5,171.8,143.2z"/>
	<path class="st0" d="M111.6,144.2c9,4.9,18.1,9.9,26.7,15.6c-5.2,3.4-10.7,6.2-16,9.4c-3.5,1.9-6.9,4.3-10.7,5.7
		C111.7,164.7,111.7,154.5,111.6,144.2z"/>
	<path class="st0" d="M51.5,145c1.7,0.2,3.4,0.7,4.8,1.7c7.2,4.5,14.8,8.2,21.8,13c-5.2,3.4-10.7,6.2-16,9.4
		c-3.5,2-6.8,4.3-10.6,5.8C51.5,165,51.6,155,51.5,145z"/>
	<path class="st0" d="M170.2,145.5c5.8,2.8,11.2,6.4,16.8,9.5c3.2,1.8,6.6,3.5,9.4,5.9c-8.5,5.5-17.4,10.5-26.3,15.3
		C170.1,166,170.1,155.7,170.2,145.5z"/>
	<path class="st0" d="M52.9,177c9-5.2,18.1-10.2,27-15.8c-0.1,10.3,0,20.7-0.1,31C70.6,187.6,61.8,182.1,52.9,177z"/>
	<path class="st0" d="M182.8,171.8c5.3-2.8,10.2-6.3,15.7-8.7c-0.1,10.3,0,20.6-0.1,30.9c-8.9-4.9-17.6-10.1-26.4-15.2
		C174.9,175.5,179.2,174.1,182.8,171.8z"/>
</g>
<g id="_x23_00ffffff">
	<path class="st1" d="M117.5,0h15.9c5.4,1.4,11,1.8,16.5,2.8c23.7,4.4,45.6,16.7,62.9,33.4c15.4,15.6,27.2,35.1,32.7,56.4
		c2.2,7.8,2.6,16.1,4.5,24v16.9c-1.6,6.6-1.9,13.4-3.5,20c-9.9,45.1-47.3,82.8-92.4,92.9c-6.8,1.7-13.9,2-20.7,3.7h-15.9
		c-6.9-1.7-14.2-1.4-21-3.4c-29.2-6.8-55.7-24.6-73.1-49c-9.7-13.7-17-29.3-20.3-45.9c-1.3-6.1-1.6-12.3-3.1-18.3v-16.9
		c1.4-5.4,1.8-11,2.8-16.5c3.3-17.9,11.1-34.8,21.9-49.3C42,27.1,68,10,96.5,3.4C103.4,1.4,110.6,1.7,117.5,0 M116.3,5.2
		c-19.9,1.7-39.4,7.9-56.1,18.9c-30,19.2-51,52.4-54.4,88c-1.8,10.3-0.9,20.8,0.6,31c4.4,30.6,21.5,58.9,46.1,77.5
		c14.7,11.3,32.1,18.9,50.3,22.5c11.6,1.7,23.5,3.2,35.2,1.2c32.5-3.1,63-20.7,82.6-46.7c17.5-22.7,26.1-51.9,24.4-80.4
		c-1-6.8-1.3-13.8-3.3-20.5c-5.2-22.2-17.3-42.7-33.8-58.4C183.8,14.9,149.6,2.7,116.3,5.2z"/>
	<path class="st1" d="M82.3,162c9.2,4.5,17.6,10.3,26.7,14.9c-9,4.8-17.5,10.6-26.7,15C82.2,182,82.2,172,82.3,162z"/>
</g>
<g id="_x23_202336ff">
	<path class="st2" d="M116.3,5.2c33.3-2.4,67.5,9.7,91.5,33c16.6,15.7,28.6,36.2,33.8,58.4c2.1,6.7,2.3,13.6,3.3,20.5
		c1.8,28.5-6.8,57.8-24.4,80.4c-19.6,26-50.1,43.6-82.6,46.7c-11.7,2-23.5,0.5-35.2-1.2c-18.2-3.6-35.6-11.2-50.3-22.5
		C27.9,201.9,10.7,173.6,6.4,143c-1.5-10.2-2.4-20.7-0.6-31c3.4-35.6,24.3-68.8,54.4-88C76.8,13.1,96.4,6.8,116.3,5.2 M53.3,73
		c8.7,5.4,17.9,10.2,26.6,15.7c-0.1-10.3,0-20.7-0.1-31C70.7,62.3,61.9,67.6,53.3,73 M82.3,58c-0.1,10-0.1,20,0,30
		C91.5,83.5,99.9,77.6,109,73C100,68.2,91.5,62.6,82.3,58 M190.3,63.2c-6.4,3.7-12.8,7.2-19,11.1c6,2.9,11.7,6.6,17.5,9.8
		c3.2,1.7,6.1,4.2,9.7,4.8c-0.1-10-0.1-20,0-30C195.5,60,192.9,61.6,190.3,63.2 M51.5,75c0,10.3,0,20.6,0,30.8
		c9.2-4.8,17.9-10.6,27.2-15.4C69.7,85.3,60.8,79.7,51.5,75 M83.6,90.2c4.2,3.5,9.3,5.5,13.9,8.4c4.1,2.3,7.9,5.1,12.3,6.8
		c0.1-10.2,0.1-20.3,0-30.5C101,79.9,92.2,84.9,83.6,90.2 M111.6,75.1c0.1,10.2,0.1,20.5,0,30.7c9-4.9,18.1-9.9,26.7-15.6
		c-5.2-3.4-10.7-6.2-16-9.4C118.8,78.8,115.5,76.3,111.6,75.1 M142.4,90.8c0,0.4,0,1.2,0,1.6c8.9,4.5,17,10.1,25.9,14.5
		c0-10.3,0-20.5,0-30.8C159.6,80.7,151.2,86.1,142.4,90.8 M170.2,76c-0.2,10.3-0.1,20.6,0,30.9c8.9-4.8,17.5-10.1,26.3-15.1
		c-0.9-0.9-1.9-1.8-3.1-2.4C185.7,85,178,80.4,170.2,76 M64.8,100.8c-3.8,2.4-8.1,4.1-11.4,7.2c8.9,4.9,17.5,10.2,26.4,15
		c0.2-10.2,0-20.3,0.1-30.5C74.5,94.6,69.9,98.1,64.8,100.8 M118.5,104.4c-1.6,1.1-3.8,1.7-4.6,3.5c8.2,5.3,17.2,9.7,25.5,15
		c0.4-1.6,0.6-3.3,0.5-5c-0.1-8.5,0-17-0.1-25.5C132.4,95.9,125.7,100.6,118.5,104.4 M184.9,101c-4.3,2.7-9,4.7-13,8
		c7.2,4.6,14.8,8.6,22.1,13c1.3,0.8,2.8,1.5,4.3,1.8c0.1-10,0.2-20-0.1-30C193.5,95.6,189.4,98.6,184.9,101 M51.5,109.9
		c0,10,0,20.1,0,30.1c1.5-0.5,3-1.1,4.4-2c7.2-4.2,14.5-8.3,21.7-12.5c0-0.3,0-0.9-0.1-1.2c-4.7-3-9.8-5.5-14.6-8.4
		C59.2,114,55.7,111.3,51.5,109.9 M111.8,109.9c-0.3,10.1-0.3,20.1,0,30.2c4.2-1.6,7.8-4.2,11.8-6.4c4.6-2.9,9.5-5.2,14-8.1
		c0-0.3,0-0.9,0-1.2c-4.5-2.9-9.4-5.3-14-8.1C119.7,114.1,116,111.5,111.8,109.9 M170.3,110.9c-0.2,10.1-0.1,20.3,0,30.4
		c4-1.5,7.4-3.9,11.1-6c5.1-3.1,10.6-5.7,15.4-9.3C188,120.8,179.3,115.6,170.3,110.9 M53.3,142.1c3.7,3.1,8,5.1,12.1,7.5
		c4.9,2.5,9.3,5.9,14.5,7.9c-0.1-10.2,0.1-20.4-0.1-30.6C70.8,131.8,62.1,137.1,53.3,142.1 M113.9,142.1c0.9,1.9,3,2.5,4.6,3.5
		c7.2,3.8,14,8.5,21.3,11.9c0.1-8.5,0-17,0.1-25.5c0-1.7-0.1-3.4-0.5-5C131.1,132.3,122.1,136.7,113.9,142.1 M171.8,143.2
		c2.2,2.3,5.2,3.5,7.9,5.1c6.3,3.5,12.3,7.4,18.8,10.6c0-10.3-0.1-20.5,0-30.8C189.4,132.8,180.7,138.2,171.8,143.2 M111.6,144.2
		c0.1,10.2,0.1,20.5,0,30.7c3.8-1.4,7.1-3.8,10.7-5.7c5.3-3.2,10.8-6,16-9.4C129.7,154.2,120.6,149.2,111.6,144.2 M51.5,145
		c0.1,10,0,20,0,30c3.8-1.5,7.1-3.9,10.6-5.8c5.3-3.2,10.8-6,16-9.4c-7-4.8-14.7-8.5-21.8-13C54.9,145.7,53.2,145.2,51.5,145
		 M170.2,145.5c0,10.2-0.1,20.4,0,30.7c8.9-4.8,17.8-9.8,26.3-15.3c-2.9-2.4-6.2-4-9.4-5.9C181.4,151.9,176,148.4,170.2,145.5
		 M52.9,177c8.9,5.2,17.7,10.6,26.9,15.3c0.1-10.4,0-20.7,0.1-31C71,166.7,61.9,171.8,52.9,177 M82.3,162c-0.1,10-0.1,20,0,30
		c9.2-4.5,17.7-10.3,26.7-15C99.9,172.3,91.5,166.6,82.3,162 M182.8,171.8c-3.6,2.3-7.8,3.8-10.8,7c8.8,5.1,17.5,10.2,26.4,15.2
		c0.1-10.3-0.1-20.6,0.1-30.9C193,165.5,188.1,168.9,182.8,171.8z"/>
</g>
</svg>
